app/assets/images/icons/active/article--line.svg

<svg width="32" height="232" viewBox="0 0 32 232" xmlns="http://www.w3.org/2000/svg" xmlns:sketch="http://www.bohemiancoding.com/sketch/ns"><title>article--line</title><g sketch:type="MSPage" fill="none"><path d="M22.848 124.7c1.097 0 1.986.906 1.986 2.024v19.555c0 1.116-.889 2.021-1.986 2.021h-13.699c-1.096 0-1.984-.905-1.984-2.021v-19.555c0-1.118.888-2.024 1.984-2.024h13.699zm-13.793 4.689h4.175v-1.924h-4.175v1.924zm0 4.306l13.922-.06v-1.848l-13.922.014v1.894zm0 4.216l13.922-.015v-1.863l-13.922.03v1.848zm0 4.268h9.754v-1.908h-9.754v1.908zm13.793-19.179h-13.699c-2.012 0-3.649 1.669-3.649 3.724v19.555c0 2.053 1.637 3.721 3.649 3.721h13.699c2.015 0 3.652-1.668 3.652-3.721v-19.555c0-2.055-1.637-3.724-3.652-3.724zm0 0" fill="#206FAC" sketch:type="MSShapeGroup"/><path d="M22.848 84.7c1.097 0 1.986.906 1.986 2.024v19.555c0 1.116-.889 2.021-1.986 2.021h-13.699c-1.096 0-1.984-.905-1.984-2.021v-19.555c0-1.118.888-2.024 1.984-2.024h13.699zm-13.793 4.689h4.175v-1.924h-4.175v1.924zm0 4.306l13.922-.06v-1.848l-13.922.014v1.894zm0 4.216l13.922-.015v-1.863l-13.922.03v1.848zm0 4.268h9.754v-1.908h-9.754v1.908zm13.793-19.179h-13.699c-2.012 0-3.649 1.669-3.649 3.724v19.555c0 2.053 1.637 3.721 3.649 3.721h13.699c2.015 0 3.652-1.668 3.652-3.721v-19.555c0-2.055-1.637-3.724-3.652-3.724zm0 0" fill="#fff" sketch:type="MSShapeGroup"/><path d="M22.848 44.7c1.097 0 1.986.906 1.986 2.024v19.555c0 1.116-.889 2.021-1.986 2.021h-13.699c-1.096 0-1.984-.905-1.984-2.021v-19.555c0-1.118.888-2.024 1.984-2.024h13.699zm-13.793 4.689h4.175v-1.924h-4.175v1.924zm0 4.306l13.922-.06v-1.848l-13.922.014v1.894zm0 4.216l13.922-.015v-1.863l-13.922.03v1.848zm0 4.268h9.754v-1.908h-9.754v1.908zm13.793-19.179h-13.699c-2.012 0-3.649 1.669-3.649 3.724v19.555c0 2.053 1.637 3.721 3.649 3.721h13.699c2.015 0 3.652-1.668 3.652-3.721v-19.555c0-2.055-1.637-3.724-3.652-3.724zm0 0" fill="#67747C" sketch:type="MSShapeGroup"/><path d="M22.848 4.7c1.097 0 1.986.906 1.986 2.024v19.555c0 1.116-.889 2.021-1.986 2.021h-13.699c-1.096 0-1.984-.905-1.984-2.021v-19.555c0-1.118.888-2.024 1.984-2.024h13.699zm-13.793 4.689h4.175v-1.924h-4.175v1.924zm0 4.306l13.922-.06v-1.848l-13.922.014v1.894zm0 4.216l13.922-.015v-1.863l-13.922.03v1.848zm0 4.268h9.754v-1.908h-9.754v1.908zm13.793-19.179h-13.699c-2.012 0-3.649 1.669-3.649 3.724v19.555c0 2.053 1.637 3.721 3.649 3.721h13.699c2.015 0 3.652-1.668 3.652-3.721v-19.555c0-2.055-1.637-3.724-3.652-3.724zm0 0" fill="#3B444F" sketch:type="MSShapeGroup"/><path d="M22.848 164.7c1.097 0 1.986.906 1.986 2.024v19.555c0 1.116-.889 2.021-1.986 2.021h-13.699c-1.096 0-1.984-.905-1.984-2.021v-19.555c0-1.118.888-2.024 1.984-2.024h13.699zm-13.793 4.689h4.175v-1.924h-4.175v1.924zm0 4.306l13.922-.06v-1.848l-13.922.014v1.894zm0 4.216l13.922-.015v-1.863l-13.922.03v1.848zm0 4.268h9.754v-1.908h-9.754v1.908zm13.793-19.179h-13.699c-2.012 0-3.649 1.669-3.649 3.724v19.555c0 2.053 1.637 3.721 3.649 3.721h13.699c2.015 0 3.652-1.668 3.652-3.721v-19.555c0-2.055-1.637-3.724-3.652-3.724zm0 0" fill="#C7E6AA" sketch:type="MSShapeGroup"/></g></svg>

<?xml version="1.0" encoding="UTF-8" standalone="no"?>
<svg width="32px" height="232px" viewBox="0 0 32 232" version="1.1" xmlns="http://www.w3.org/2000/svg" xmlns:xlink="http://www.w3.org/1999/xlink" xmlns:sketch="http://www.bohemiancoding.com/sketch/ns">
    <title>article--line</title>
    <description>Created with Sketch (http://www.bohemiancoding.com/sketch)</description>
    <defs></defs>
    <g id="Points-of-interest" stroke="none" stroke-width="1" fill="none" fill-rule="evenodd" sketch:type="MSPage">
        <path d="M22.848,124.7 C23.945,124.7 24.834,125.606 24.834,126.724 L24.834,146.279 C24.834,147.395 23.945,148.3 22.848,148.3 L9.149,148.3 C8.053,148.3 7.165,147.395 7.165,146.279 L7.165,126.724 C7.165,125.606 8.053,124.7 9.149,124.7 L22.848,124.7 L22.848,124.7 Z M9.055,129.389 L13.23,129.389 L13.23,127.465 L9.055,127.465 L9.055,127.465 L9.055,129.389 L9.055,129.389 Z M9.055,133.695 L22.977,133.635 L22.977,131.787 L9.055,131.801 L9.055,133.695 L9.055,133.695 Z M9.055,137.911 L22.977,137.896 L22.977,136.033 L9.055,136.063 L9.055,137.911 L9.055,137.911 Z M9.055,142.179 L18.809,142.179 L18.809,140.271 L9.055,140.271 L9.055,140.271 L9.055,142.179 L9.055,142.179 Z M22.848,123 L9.149,123 C7.137,123 5.5,124.669 5.5,126.724 L5.5,146.279 C5.5,148.332 7.137,150 9.149,150 L22.848,150 C24.863,150 26.5,148.332 26.5,146.279 L26.5,126.724 C26.5,124.669 24.863,123 22.848,123 L22.848,123 Z M22.848,123" id="article-line--lp-blue" fill="#206FAC" sketch:type="MSShapeGroup"></path>
        <path d="M22.848,84.7 C23.945,84.7 24.834,85.606 24.834,86.724 L24.834,106.279 C24.834,107.395 23.945,108.3 22.848,108.3 L9.149,108.3 C8.053,108.3 7.165,107.395 7.165,106.279 L7.165,86.724 C7.165,85.606 8.053,84.7 9.149,84.7 L22.848,84.7 L22.848,84.7 Z M9.055,89.389 L13.23,89.389 L13.23,87.465 L9.055,87.465 L9.055,87.465 L9.055,89.389 L9.055,89.389 Z M9.055,93.695 L22.977,93.635 L22.977,91.787 L9.055,91.801 L9.055,93.695 L9.055,93.695 Z M9.055,97.911 L22.977,97.896 L22.977,96.033 L9.055,96.063 L9.055,97.911 L9.055,97.911 Z M9.055,102.179 L18.809,102.179 L18.809,100.271 L9.055,100.271 L9.055,100.271 L9.055,102.179 L9.055,102.179 Z M22.848,83 L9.149,83 C7.137,83 5.5,84.669 5.5,86.724 L5.5,106.279 C5.5,108.332 7.137,110 9.149,110 L22.848,110 C24.863,110 26.5,108.332 26.5,106.279 L26.5,86.724 C26.5,84.669 24.863,83 22.848,83 L22.848,83 Z M22.848,83" id="article-line--white" fill="#FFFFFF" sketch:type="MSShapeGroup"></path>
        <path d="M22.848,44.7 C23.945,44.7 24.834,45.606 24.834,46.724 L24.834,66.279 C24.834,67.395 23.945,68.3 22.848,68.3 L9.149,68.3 C8.053,68.3 7.165,67.395 7.165,66.279 L7.165,46.724 C7.165,45.606 8.053,44.7 9.149,44.7 L22.848,44.7 L22.848,44.7 Z M9.055,49.389 L13.23,49.389 L13.23,47.465 L9.055,47.465 L9.055,47.465 L9.055,49.389 L9.055,49.389 Z M9.055,53.695 L22.977,53.635 L22.977,51.787 L9.055,51.801 L9.055,53.695 L9.055,53.695 Z M9.055,57.911 L22.977,57.896 L22.977,56.033 L9.055,56.063 L9.055,57.911 L9.055,57.911 Z M9.055,62.179 L18.809,62.179 L18.809,60.271 L9.055,60.271 L9.055,60.271 L9.055,62.179 L9.055,62.179 Z M22.848,43 L9.149,43 C7.137,43 5.5,44.669 5.5,46.724 L5.5,66.279 C5.5,68.332 7.137,70 9.149,70 L22.848,70 C24.863,70 26.5,68.332 26.5,66.279 L26.5,46.724 C26.5,44.669 24.863,43 22.848,43 L22.848,43 Z M22.848,43" id="article-line--body-grey" fill="#67747C" sketch:type="MSShapeGroup"></path>
        <path d="M22.848,4.7 C23.945,4.7 24.834,5.606 24.834,6.724 L24.834,26.279 C24.834,27.395 23.945,28.3 22.848,28.3 L9.149,28.3 C8.053,28.3 7.165,27.395 7.165,26.279 L7.165,6.724 C7.165,5.606 8.053,4.7 9.149,4.7 L22.848,4.7 L22.848,4.7 Z M9.055,9.389 L13.23,9.389 L13.23,7.465 L9.055,7.465 L9.055,7.465 L9.055,9.389 L9.055,9.389 Z M9.055,13.695 L22.977,13.635 L22.977,11.787 L9.055,11.801 L9.055,13.695 L9.055,13.695 Z M9.055,17.911 L22.977,17.896 L22.977,16.033 L9.055,16.063 L9.055,17.911 L9.055,17.911 Z M9.055,22.179 L18.809,22.179 L18.809,20.271 L9.055,20.271 L9.055,20.271 L9.055,22.179 L9.055,22.179 Z M22.848,3 L9.149,3 C7.137,3 5.5,4.669 5.5,6.724 L5.5,26.279 C5.5,28.332 7.137,30 9.149,30 L22.848,30 C24.863,30 26.5,28.332 26.5,26.279 L26.5,6.724 C26.5,4.669 24.863,3 22.848,3 L22.848,3 Z M22.848,3" id="article-line--title-grey" fill="#3B444F" sketch:type="MSShapeGroup"></path>
        <path d="M22.848,164.7 C23.945,164.7 24.834,165.606 24.834,166.724 L24.834,186.279 C24.834,187.395 23.945,188.3 22.848,188.3 L9.149,188.3 C8.053,188.3 7.165,187.395 7.165,186.279 L7.165,166.724 C7.165,165.606 8.053,164.7 9.149,164.7 L22.848,164.7 L22.848,164.7 Z M9.055,169.389 L13.23,169.389 L13.23,167.465 L9.055,167.465 L9.055,167.465 L9.055,169.389 L9.055,169.389 Z M9.055,173.695 L22.977,173.635 L22.977,171.787 L9.055,171.801 L9.055,173.695 L9.055,173.695 Z M9.055,177.911 L22.977,177.896 L22.977,176.033 L9.055,176.063 L9.055,177.911 L9.055,177.911 Z M9.055,182.179 L18.809,182.179 L18.809,180.271 L9.055,180.271 L9.055,180.271 L9.055,182.179 L9.055,182.179 Z M22.848,163 L9.149,163 C7.137,163 5.5,164.669 5.5,166.724 L5.5,186.279 C5.5,188.332 7.137,190 9.149,190 L22.848,190 C24.863,190 26.5,188.332 26.5,186.279 L26.5,166.724 C26.5,164.669 24.863,163 22.848,163 L22.848,163 Z M22.848,163" id="article-line--green" fill="#C7E6AA" sketch:type="MSShapeGroup"></path>
    </g>
</svg>
